X: 23
T:Cape Breton Jig
M:6/8
L:1/8
S:Josephine Marsh
R:Double Jig
Z:Seanchas
K:G
dBG G3|Bcd BAG|EAA A2G|EAA ABc|
dBG G3|Bcd BAG|EcB AGF|1 G3 G2B:|2 G3 G2f|
|:g2e eBe|bee efg|f2d dAd|add def|
g2e eBe|bee efg|afd afd|1 e3 e2f:|2 e3 edc||
<end>
<start>
